packages/ffe-icons/icons/open/400/sm/subject.svg

<svg xmlns="http://www.w3.org/2000/svg" height="20" viewBox="0 -960 960 960" width="20"><path d="M228-240q-15.3 0-25.65-10.289-10.35-10.29-10.35-25.5Q192-291 202.35-301.5 212.7-312 228-312h264q15.3 0 25.65 10.289 10.35 10.29 10.35 25.5Q528-261 517.65-250.5 507.3-240 492-240H228Zm.292-144Q213-384 202.5-394.289q-10.5-10.29-10.5-25.5Q192-435 202.344-445.5q10.345-10.5 25.637-10.5h503.727Q747-456 757.5-445.711q10.5 10.29 10.5 25.5Q768-405 757.656-394.5 747.311-384 732.019-384H228.292Zm0-144Q213-528 202.5-538.289q-10.5-10.29-10.5-25.5Q192-579 202.344-589.5q10.345-10.5 25.637-10.5h503.727Q747-600 757.5-589.711q10.5 10.29 10.5 25.5Q768-549 757.656-538.5 747.311-528 732.019-528H228.292Zm0-144Q213-672 202.5-682.289q-10.5-10.29-10.5-25.5Q192-723 202.344-733.5q10.345-10.5 25.637-10.5h503.727Q747-744 757.5-733.711q10.5 10.29 10.5 25.5Q768-693 757.656-682.5 747.311-672 732.019-672H228.292Z"/></svg>

<svg xmlns="http://www.w3.org/2000/svg" height="20" viewBox="0 -960 960 960" width="20"><path d="M228-240q-15.3 0-25.65-10.29Q192-260.58 192-275.79t10.35-25.71Q212.7-312 228-312h264q15.3 0 25.65 10.29Q528-291.42 528-276.21t-10.35 25.71Q507.3-240 492-240H228Zm.29-144q-15.29 0-25.79-10.29t-10.5-25.5q0-15.21 10.34-25.71 10.35-10.5 25.64-10.5h503.73q15.29 0 25.79 10.29t10.5 25.5q0 15.21-10.34 25.71-10.35 10.5-25.64 10.5H228.29Zm0-144q-15.29 0-25.79-10.29t-10.5-25.5q0-15.21 10.34-25.71 10.35-10.5 25.64-10.5h503.73q15.29 0 25.79 10.29t10.5 25.5q0 15.21-10.34 25.71-10.35 10.5-25.64 10.5H228.29Zm0-144q-15.29 0-25.79-10.29t-10.5-25.5q0-15.21 10.34-25.71 10.35-10.5 25.64-10.5h503.73q15.29 0 25.79 10.29t10.5 25.5q0 15.21-10.34 25.71-10.35 10.5-25.64 10.5H228.29Z"/></svg>
